fs/comment_arrow_left_20_regular.svg

<svg viewBox="0 0 20 20" fill="none" xmlns="http://www.w3.org/2000/svg" height="1em" width="1em">
  <path d="M19 6.5C19 9.53757 16.5376 12 13.5 12C10.4624 12 8 9.53757 8 6.5C8 3.46243 10.4624 1 13.5 1C16.5376 1 19 3.46243 19 6.5ZM10.5 6C10.2239 6 10 6.22386 10 6.5C10 6.77614 10.2239 7 10.5 7L15.2929 7L13.6464 8.64645C13.4512 8.84171 13.4512 9.15829 13.6464 9.35355C13.8417 9.54881 14.1583 9.54882 14.3536 9.35355L16.8536 6.85355C17.0488 6.65829 17.0488 6.34171 16.8536 6.14645L14.3536 3.64645C14.1583 3.45118 13.8417 3.45118 13.6464 3.64645C13.4512 3.84171 13.4512 4.15829 13.6464 4.35355L15.2929 6L10.5 6ZM17 12.2764V11.9782C17.359 11.7484 17.6938 11.4842 18 11.1904V12.2764C18 13.6935 16.8359 14.8423 15.4 14.8423H10.81L6.79895 17.8034C6.35668 18.1298 5.73 18.0406 5.39921 17.6042C5.26989 17.4335 5.2 17.2262 5.2 17.0133L5.19937 14.8423H4.6C3.16406 14.8423 2 13.6935 2 12.2764V5.56582C2 4.14876 3.16406 3 4.6 3H8.02182C7.81967 3.31575 7.64406 3.65013 7.49816 4H4.6C3.70383 4 3 4.71348 3 5.56582V12.2764C3 13.1288 3.70383 13.8423 4.6 13.8423H6.19908L6.2 17L6.20346 16.9997L6.20502 16.9988L10.4809 13.8423H15.4C16.2962 13.8423 17 13.1288 17 12.2764Z" fill="#212121"/>
</svg>

<svg viewBox="0 0 20 20" fill="none" xmlns="http://www.w3.org/2000/svg" height="1em" width="1em">
  <path d="M19 6.5a5.5 5.5 0 1 1-11 0 5.5 5.5 0 0 1 11 0ZM10.5 6a.5.5 0 0 0 0 1h4.793l-1.647 1.646a.5.5 0 0 0 .708.708l2.5-2.5a.5.5 0 0 0 0-.708l-2.5-2.5a.5.5 0 0 0-.708.708L15.293 6H10.5Zm6.5 6.276v-.298a6.52 6.52 0 0 0 1-.788v1.086c0 1.418-1.164 2.566-2.6 2.566h-4.59l-4.011 2.961a1.009 1.009 0 0 1-1.4-.199.978.978 0 0 1-.199-.59v-2.172h-.6c-1.436 0-2.6-1.149-2.6-2.566v-6.71C2 4.149 3.164 3 4.6 3h3.422a6.51 6.51 0 0 0-.524 1H4.6C3.704 4 3 4.713 3 5.566v6.71c0 .853.704 1.566 1.6 1.566h1.6V17h.003l.002-.001 4.276-3.157H15.4c.896 0 1.6-.713 1.6-1.566Z" fill="#212121"/>
</svg>
